!!!COM: Bach, Johann Sebastian
!!!CDT: 1685/03/31-1750/07/28
!!!OTL: Sinfonia 5 in E-flat major
!!!SCA: BWV 791
**kern	**kern	**kern
*staff3	*staff2	*staff1
*clefF4	*clefG2	*clefG2
*k[b-e-a-]	*k[b-e-a-]	*k[b-e-a-]
*M3/4	*M3/4	*M3/4
*MM60	*MM60	*MM60
=1	=1	=1
16r	2.r	4r
16E-LL	.	.
16G	.	.
16B-JJ	.	.
4e-	.	8r
.	.	16r
.	.	16b-
4c	.	8.ee-wSSSL
.	.	16ffJk
=2	=2	=2
.	.	(8qqee-/
16r	4r	[4dd)
16BB-LL	.	.
16D	.	.
16FJJ	.	.
4B-	8r	8.ddL]
.	16r	.
.	16f	16ccJk
4G	8.b-WSSSL	8.dd-XL
.	16ccJk	16ee-Jk
=3	=3	=3
.	(8qqb-\	(8qqdd-X/
16r	[4a-)	[4cc)
16AA-LL	.	.
16C	.	.
16E-JJ	.	.
4A-	8.a-L]	8.ccL]
.	16gJk	16ccJk
.	(8qqg	(8qqcc
4F	8.a-\L)	8.ffL)
.	16b-Jk	16ggJk
=4	=4	=4
.	(8qqa-\	(8qqff/
16r	[4g)	[4ee-)
16CLL	.	.
16E-	.	.
16GJJ	.	.
4c	8.gL]	8.ee-L]
.	16gJk	16ddJk
.	.	(8qqdd
4An	8.ccL	8.ee-L)
.	16ddJk	16ffJk
!!LO:LB:g=original
=5	=5	=5
.	(8qqcc\	(8qqee-/
16r	[2.b-)	[4dd)
16BB-LL	.	.
16D	.	.
16FJJ	.	.
4B-	.	8.ddL]
.	.	16ddJk
.	.	(8qqdd
4E-	.	8.ggL)
.	.	16ggJk
=6	=6	=6
.	.	(8qqgg
16r	4b-]	[4cc)
16AA-LL	.	.
16C	.	.
16E-JJ	.	.
4A-	[2a-sSS	8.ccL]
.	.	16ccJk
.	.	(8qqcc
4D	.	8.ffL)
.	.	16ffJk
=7	=7	=7
.	.	(8qqff
16r	4a-_	4b-)
16GGLL	.	.
16BB-	.	.
16DJJ	.	.
4G	8.a-L]	[2ee-w
.	16gJk	.
.	(8qqg	.
4A-	8.ccL)	.
.	16ccJk	.
=8	=8	=8
.	(8qqcc	.
16r	[4f)	4ee-]
16BB-LL	.	.
16D	.	.
16FJJ	.	.
4B-	8.fL]	2dd
.	16fJk	.
4BB-	8.b-WSSSL	.
.	16ccJk	.
!!LO:LB:g=original
=9	=9	=9
.	(8qqa-\	(8qqdd/
16r	[4g)	[4ee-)
16EE-LL	.	.
16GG	.	.
16BB-JJ	.	.
4E-	8.gL]	8.ee-]
*	*Xtuplet	*
.	(48ggLL	16r
.	48ee-	.
.	48bJJJ)	.
4EE-	8.ccLw	4r
.	16ccJk	.
=10	=10	=10
16r	[2.ccssS	4r
16AA-LL	.	.
16C	.	.
16E-JJ	.	.
4A-	.	8r
.	.	16r
*	*	*Xtuplet
.	.	48aa-LLL
.	.	48ff
.	.	48ccJJJ
4F	.	8.ddLW
.	.	16ddJk
=11	=11	=11
16r	4cc]	[4ddsSs
16FLL	.	.
16A-	.	.
16cJJ	.	.
.	(8qqcc	.
4f	8.bnL)	8.ddL]
.	16ccJk	16ee-Jk
.	(8qqdd	(8qqee-
16r	[4dd)	[4ff)
16BnLL	.	.
16An	.	.
16GJJ	.	.
=12	=12	=12
16cLL	8.ddL]	8.ffL]
16G	.	.
16A-	.	.
16FJJ	16ccJk	16ee-Jk
4G	4cc	4ee-
.	.	32qqffLLL
.	.	32qqee-
.	.	32qqdd
.	.	32qqqcc
.	.	32qqddJJJ
4GG	4bn	8.ddOL
.	.	16ccJk
!!LO:LB:g=original
=13	=13	=13
16r	4ccW	4ccW
16CCLL	.	.
16EE-	.	.
16GGJJ	.	.
4C	8r	4r
.	16r	.
.	16g	.
4EE-	8.ccWSSSL	4r
.	16ddJk	.
=14	=14	=14
.	(8qqb-\	.
16r	[4an)	4r
16FFLL	.	.
16AAn	.	.
16CJJ	.	.
4F	8.aL]	8r
.	.	16r
.	16b-Jk	16ccK
4AA	[4cc	8.ffWSSSL
.	.	16ggJk
=15	=15	=15
.	.	(8qqee-/
16r	4cc]	[4dd)
16BB-LL	.	.
16D	.	.
16FJJ	.	.
4B-	8.b-L	8.ddL]
.	16ccJk	16ee-K
.	(8qqcc	((8qqee-
4G	8.ddL)	8.ff)
.	16ee-Jk	16ggJk
=16	=16	=16
.	(8qqdd	(8qqff
16r	8.ccL)	8.ee-L)
16GLL	.	.
16An	.	.
16B-JJ	16b-Jk	16ddJk
4F	4b-	4dd
4FF	4an	8.ccOL
.	.	16b-Jk
!!LO:LB:g=original
=17	=17	=17
16r	4b-W	4b-W
16BB-LL	.	.
16D	.	.
16FJJ	.	.
4B-	4r	8r
.	.	16r
.	.	16bb-
4D	4r	8.aa-XOL
.	.	16bb-Jk
=18	=18	=18
.	.	(8qqaa-
16r	4r	[4gg)
16E-LL	.	.
16G	.	.
16B-JJ	.	.
4e-	8r	8.ggL]
.	16r	.
.	16ee-	16aa-Jk
4G	8.dd-XOL	[4bb-
.	16ee-Jk	.
=19	=19	=19
.	(8qqdd-	.
16r	[4cc)	8.bb-L]
16AA-LL	.	.
16C	.	.
16E-JJ	.	16ggJk
.	.	(8qqff
4A-	8.ccL]	8.eenL)
.	16dd-XKJk	16ffJk
.	(8qqcc	.
4En	8.b-L)	[4gg
.	16ccJk	.
=20	=20	=20
.	(8qqb-	.
16r	[4a-)	8.ggL]
16FFLL	.	.
16AA-	.	.
16CJJ	.	16ffJk
.	.	(8qqee-
4F	8.a-L]	8.dd-XL)
.	16gJk	16ccJk
.	(8qqg	(8qqcc
4D-X	8.a-L)	8.ffL)
.	16b-Jk	16ggJk
!!LO:LB:g=original
=21	=21	=21
.	.	(8qqff/
16r	[4cc	[4een)
16CLL	.	.
16En	.	.
16GJJ	.	.
4c	8.ccL]	8.eeL]
.	16ccJk	16eeJk
4A-	8.ffL::	8.aa-::L
.	16ee-XJk	16aa-Jk
=22	=22	=22
16r	[2.dd-Xsss	(4aa-
16BB-LL	.	.
16D-X	.	.
16FJJ	.	.
4B-	.	8.ggL)
.	.	48ffLL
.	.	48een
.	.	48ffJJJ
.	.	(8qqee
4G	.	8.bb-L)
.	.	16bb-Jk
=23	=23	=23
16r	4dd-]	(4bb-
16CCLL	.	.
16EEn	.	.
16GGJJ	.	.
4C	8.ccL	8.eenOL)
.	16b-Jk	16eeJk
.	(8qqb-	(8qqee
4D-X	8.a-L)	8.ffL)
.	16gJk	16eeJk
=24	=24	=24
.	(8qqg	(8qqeen
16r	8.a-L)	8.ffL)
16D-XLL	.	.
16C	.	.
16BB-JJ	16b-Jk	16ggJk
4C	4a-	(4ff
4CC	8.gL	8.eenOL)
.	16a-Jk	16ffJk
!!LO:LB:g=original
=25	=25	=25
16r	[4a-w	4ff
16FFLL	.	.
16AA-	.	.
16CJJ	.	.
4F	8.a-L]	4r
.	16ccJk	.
.	(8qqcc	.
4AA-	8.ffL)	4r
.	(48ee-LL	.
.	48dd-	.
.	48ccJJJ)	.
=26	=26	=26
.	(8qqcc\	.
16r	[2.dd-X)	4r
16BB-LL	.	.
16D-X	.	.
16FJJ	.	.
4B-	.	8r
.	.	16r
.	.	16ff
4D-	.	8.bb-L
.	.	(48aa-LL
.	.	48gg
.	.	48ffJJJ)
=27	=27	=27
.	.	(8qqff/
16r	4dd-_	[4gg)
16E-LL	.	.
16G	.	.
16B-JJ	.	.
4e-	8.dd-L]	8.ggL]
.	16ccJk	16aa-Jk
.	.	(8qqee-
16r	[4b-	[4dd-X)
16GLL	.	.
16F	.	.
16E-JJ	.	.
=28	=28	=28
16A-LL	8.b-L]	8.dd-L]
16E-	.	.
16F	.	.
16D-XJJ	16a-Jk	16ccJk
4E-	(4a-	(4cc
4EE-	4g)	8.b-OL)
.	.	16a-Jk
=29	=29	=29
16r	4a-	[4a-
16AA-LL	.	.
16C	.	.
16E-JJ	.	.
4A-	4r	8.a-L]
.	.	16e-Jk
4F	4r	8.a-wSSsL
.	.	16b-Jk
!!LO:LB:g=original
=30	=30	=30
.	.	(8qqa-/
16r	4r	[4g)
16EE-LL	.	.
16GG	.	.
16BB-JJ	.	.
4E-	8rg	8.gL]
.	16rg	.
.	16B-	16fJk
4C	8.e-wSSsL	8.gL
.	16fJk	16a-Jk
=31	=31	=31
.	(8qqe-\	.
16r	[4d)	[4b-
16BB-LL	.	.
16D	.	.
16FJJ	.	.
4B-	8.dL]	8.b-L]
.	16cJk	16fJk
.	(8qqc	(8qqf
4G	8.d-XL)	8.b-L)
.	16e-Jk	16ccJk
=32	=32	=32
.	(8qqd-X\	(8qqb-/
16r	[4c)	[4a-)
16AA-LL	.	.
16C	.	.
16E-JJ	.	.
4A-	8.cL]	8.a-L]
.	16cJk	16gJk
.	(8qqc	(8qqg
4F	8.fL)	8.a-L)
.	16gJk	16b-Jk
=33	=33	=33
.	(8qqf\	(8qqa-/
16r	[4e-)	[4g)
16CLL	.	.
16E-	.	.
16GJJ	.	.
4c	8.e-L]	8.gL]
.	16dJk	16gJk
.	(8qqd	.
4An	8.e-L)	8.ccL
.	16fJk	16ccJk
!!LO:LB:g=original
=34	=34	=34
.	(8qqe-\	.
16r	[4d)	4cc
16BB-LL	.	.
16D	.	.
16FJJ	.	.
4B-	8.dL]	[2b-sSS
.	16dJk	.
4E-	8.gLW	.
.	16gJk	.
=35	=35	=35
.	(8qqg	.
16r	[4c)	4b-]
16AA-LL	.	.
16C	.	.
16E-JJ	.	.
4A-	8.cL]	[2a-sSS
.	48cLL	.
.	48d	.
.	48e-JJJ	.
4D	8.fWL	.
.	16fJk	.
=36	=36	=36
.	(8qqf	.
16r	4B-)	4a-_
16GGLL	.	.
16BB-	.	.
16DJJ	.	.
4G	[2e-	8.a-L]
.	.	48gLL
.	.	48a-
.	.	48b-JJJ
4A-	.	8.ccML
.	.	16ccJk
=37	=37	=37
.	.	(8qqcc
16r	4e-]	[4f)
16BB-LL	.	.
16F	.	.
16A-JJ	.	.
.	(8qqe-	.
4B-	2d)	8.fL]
.	.	16fJk
4BB-	.	8.b-WSSSL
.	.	16ccJk
=38	=38	=38
2.EE-;	2.e-;	2.g;
==	==	==
*-	*-	*-
!!!system-decoration: [(s1,s2,s3)]
!!!URL-pdf: https://vmirror.imslp.org/files/imglnks/usimg/5/55/IMSLP396136-PMLP03268-Bach,_Johann_Sebastian-Werke_Breitkopf_Band_3_02_BWV_787-801.pdf#page=6 Bach-Gesellschaft Ausgabe, Band 3 (pp.19-42) Leipzig: Breitkopf und Härtel, 1853. Plate B.W. III.
!!!URL-youtube: https://www.youtube.com/watch?v=Lao8x1bHWEg&t=464s Malinowski
!!!SMS: Bach-Gesellschaft Ausgabe, Band 3 (pp.19-42) Leipzig: Breitkopf und Härtel, 1853. Plate B.W. III.
!!!ONB: Open-score format
!!!ENC: Craig Stuart Sapp
!!!END: 2024/03/28
!!!EED: Craig Stuart Sapp
!!!EEV: 2024/03/28
!!!title: @{OTL} (@{SCA})
!!!filter-keyboard: sab2gs
!!!voices: 3
!!!AGN: polyphony
!!!AST: baroque
!!!AMT: simple triple
!!!AIN: cemb; clavi
